_src/static/img/icon/youtube-small.svg

<svg width="20" height="20" viewBox="0 0 20 20" fill="none" xmlns="http://www.w3.org/2000/svg">
<g clip-path="url(#clip0)">
<path d="M19.5879 5.19912C19.3574 4.34234 18.6819 3.66699 17.8252 3.43628C16.2602 3.00797 9.99981 3.00797 9.99981 3.00797C9.99981 3.00797 3.73961 3.00797 2.17452 3.41995C1.33438 3.65051 0.642392 4.34249 0.411833 5.19912C0 6.76405 0 10.0096 0 10.0096C0 10.0096 0 13.2714 0.411833 14.8201C0.642545 15.6767 1.3179 16.3522 2.17467 16.5829C3.75609 17.0112 9.99996 17.0112 9.99996 17.0112C9.99996 17.0112 16.2602 17.0112 17.8252 16.5992C18.682 16.3687 19.3574 15.6932 19.5881 14.8365C19.9999 13.2714 19.9999 10.0261 19.9999 10.0261C19.9999 10.0261 20.0164 6.76405 19.5879 5.19912Z" fill="#FF0000"/>
<path d="M8.00586 13.0076L13.2117 10.0093L8.00586 7.01093V13.0076Z" fill="white"/>
</g>
<defs>
<clipPath id="clip0">
<rect width="20" height="20" fill="white"/>
</clipPath>
</defs>
</svg>

<svg width="20" height="20" fill="none" xmlns="http://www.w3.org/2000/svg"><g clip-path="url(#clip0)"><path d="M19.588 5.2a2.505 2.505 0 00-1.763-1.764C16.26 3.008 10 3.008 10 3.008s-6.26 0-7.825.412c-.84.23-1.533.922-1.763 1.78C0 6.763 0 10.01 0 10.01s0 3.261.412 4.81c.23.857.906 1.532 1.763 1.763 1.581.428 7.825.428 7.825.428s6.26 0 7.825-.412a2.506 2.506 0 001.763-1.763c.412-1.565.412-4.81.412-4.81s.016-3.262-.412-4.827z" fill="red"/><path d="M8.006 13.008l5.206-2.999-5.206-2.998v5.997z" fill="#fff"/></g><defs><clipPath id="clip0"><path fill="#fff" d="M0 0h20v20H0z"/></clipPath></defs></svg>
